icon-svg/single-spot.svg

<?xml version="1.0" encoding="UTF-8"?>
<svg width="32px" height="32px" viewBox="0 0 32 32" version="1.1"  fill="#44739e"  xmlns="http://www.w3.org/2000/svg" xmlns:xlink="http://www.w3.org/1999/xlink">
            <path d="M25.512,22.44475 C24.737,24.67075 23.145,26.13075 21.957,25.70575 C20.77,25.28175 20.436,23.13275 21.212,20.90875 C21.988,18.68275 23.579,17.22275 24.767,17.64675 C25.954,18.07175 26.288,20.21875 25.512,22.44475 M26.26,16.08275 L15,12.26075 L15,10.37575 C17.255,10.31175 19.45,10.03375 21.162,9.54075 C22.782,9.07175 23.7,8.49075 23.938,7.89075 C23.982,7.79075 24,7.68475 24,7.57875 L24,6.81475 C24,6.70875 23.982,6.60775 23.938,6.50275 C23.694,5.87775 22.7,5.27675 20.982,4.80175 C17.1,3.73275 10.888,3.73275 7.013,4.80175 C5.294,5.27675 4.307,5.87775 4.063,6.50275 C4.019,6.60775 4,6.70875 4,6.81475 L4,7.57875 C4,7.68475 4.019,7.79075 4.063,7.89075 C4.3,8.49075 5.219,9.07175 6.844,9.54075 C8.556,10.03375 10.747,10.31075 13,10.37475 L13,12.28075 C11.812,12.88575 10.492,14.42275 9.728,16.33575 C8.613,19.12575 8.8,21.81775 10.148,22.34875 L22.062,27.89275 C23.836,28.51475 26.215,26.37575 27.375,23.11375 C28.534,19.85175 28.035,16.70475 26.26,16.08275"></path>
</svg>

<svg xmlns="http://www.w3.org/2000/svg" fill="#44739e" viewBox="0 0 24 24"><path d="M25.512 22.4448c-.775 2.226-2.367 3.686-3.555 3.261-1.187-.424-1.521-2.573-.745-4.797.776-2.226 2.367-3.686 3.555-3.262 1.187.425 1.521 2.572.745 4.798m.748-6.362L15 12.2608v-1.885c2.255-.064 4.45-.342 6.162-.835 1.62-.469 2.538-1.05 2.776-1.65.044-.1.062-.206.062-.312v-.764a.79.79 0 0 0-.062-.312c-.244-.625-1.238-1.226-2.956-1.701-3.882-1.069-10.094-1.069-13.969 0-1.719.475-2.706 1.076-2.95 1.701a.79.79 0 0 0-.063.312v.764c0 .106.019.212.063.312.237.6 1.156 1.181 2.781 1.65 1.712.493 3.903.77 6.156.834v1.906c-1.188.605-2.508 2.142-3.272 4.055-1.115 2.79-.928 5.482.42 6.013l11.914 5.544c1.774.622 4.153-1.517 5.313-4.779 1.159-3.262.66-6.409-1.115-7.031"/></svg>
